X:6
T:Untitled Jig. JBs.006
M:6/8
L:1/8
Q:3/8=120
R:Jig
A:North Shropshire
S:Jas.Blackshaw MS, 1837, N.Shropshire
Z:T.Weatherall 2006
K:G
D|G2GG2g|gfe d2c|BAG AGF|â€first G is dotted in MSâ€G2GG2:|!
e|ece ece|dBd dBd|cdc BcB|A2AA2D|!
G2GG2g|gfe d2c|BAG AGF|G2GG2|]

